X: 17665
T: Holly Bush, The
R: jig
M: 6/8
K: Amajor
aee aee|aee {a}edc|Bdd Bdd|Bdd {e}dcB|
cBc ded|~cBA Bed|~cBA {g}fec|efg a2 z:|
cBA {d}BAE|AEA Bcd|~cBA {g}fed|cec dcB|
cBA {d}BAE|AEA Bcd|~cBA {g}fed|efg a2 z:|

